X: 4
T: Rolling Waves, The
Z: ArtemisFowltheSecond
S: https://thesession.org/tunes/515#setting30078
R: jig
M: 6/8
L: 1/8
K: Dmaj
|:F2 E EDE|F2 D DED|F2 E EFA|d2 e fdA|
|F2 E EDE|F2 D DED|AFE EFA|B3 d3:|
|:ABd e2 f|d2 cB2 A|ABd e2 f|d2 A B3|ABd ede|fdB BAB|ABd ede|
|fdB BAF|AFE EFA|B2c d2e|1fed cBA|B2A FDF:|2fdB AFA|B3 d3||
